Papirus-GTK/24x24/apps/puddletag.svg

<svg height="24" width="24" xmlns="http://www.w3.org/2000/svg"><path d="m12 4c-2.8475 0-5.2725 1.8442667-6.3165 4.4544001-2.65065.4170667-4.6835 2.8074669-4.6835 5.7274659 0 3.213334 2.46245 5.818134 5.5 5.818134h11.6875c2.658 0 4.8125-2.279466 4.8125-5.090667 0-2.613333-1.8575-4.754666-4.254-5.0458657-.625-3.3354673-3.409-5.8634673-6.746-5.8634673z" fill="#ec6295"/><path d="m16 8.5l-6 2v1 3.269531a2 2 0 0 0 -1-.269531 2 2 0 0 0 -2 2 2 2 0 0 0  2 2 2 2 0 0 0  2-2v-5.333984l4-1.332032v2.935547c-.303885-.17609-.648783-.26905-1-.269531-1.104569 0-2 .895431-2 2 0 1.104569.895431 2 2 2 1.104569 0 2-.895431 2-2v-5z" opacity=".2"/><path d="m16 8l-6 2v1 3.269531a2 2 0 0 0 -1-.269531 2 2 0 0 0 -2 2 2 2 0 0 0  2 2 2 2 0 0 0  2-2v-5.333984l4-1.3320316v2.9355466c-.303885-.17609-.648783-.26905-1-.269531-1.104569 0-2 .895431-2 2 0 1.104569.895431 2 2 2 1.104569 0 2-.895431 2-2v-5z" fill="#fff"/><path d="m12 4c-2.8475 0-5.2724062 1.8449447-6.3164062 4.4550781-2.6506501.4170667-4.6835938 2.8065639-4.6835938 5.7265629 0 .10733.0102008.212461.015625.318359.0840924-2.835117 2.073754-5.136735 4.6679688-5.5449219 1.044-2.6101334 3.4689062-4.4550781 6.3164062-4.4550781 3.337 0 6.121094 2.5278143 6.746094 5.863281 2.340753.284426 4.154571 2.338775 4.238281 4.869141.00638-.107285.015625-.213281.015625-.322266 0-2.613333-1.857406-4.755675-4.253906-5.0468748-.625-3.3354672-3.409094-5.8632812-6.746094-5.8632812z" fill="#fff" opacity=".2"/><path d="m1.015625 14c-.0018294.061676-.015625.119471-.015625.181641 0 3.213334 2.46245 5.818359 5.5 5.818359h11.6875c2.658 0 4.8125-2.278643 4.8125-5.089844 0-.06079-.013631-.117472-.015625-.177734-.15819 2.660061-2.241921 4.767578-4.796875 4.767578h-11.6875c-2.9360914 0-5.3274059-2.435443-5.484375-5.5z" opacity=".3"/></svg>

<?xml version="1.0" encoding="UTF-8" standalone="no"?>
<!-- Created with Inkscape (http://www.inkscape.org/) -->

<svg
   xmlns:dc="http://purl.org/dc/elements/1.1/"
   xmlns:cc="http://creativecommons.org/ns#"
   xmlns:rdf="http://www.w3.org/1999/02/22-rdf-syntax-ns#"
   xmlns:svg="http://www.w3.org/2000/svg"
   xmlns="http://www.w3.org/2000/svg"
   xmlns:sodipodi="http://sodipodi.sourceforge.net/DTD/sodipodi-0.dtd"
   xmlns:inkscape="http://www.inkscape.org/namespaces/inkscape"
   id="svg2817"
   height="24"
   width="24"
   version="1.0"
   inkscape:version="0.91 r13725"
   sodipodi:docname="puddletag.svg">
  <defs
     id="defs11" />
  <sodipodi:namedview
     pagecolor="#ffffff"
     bordercolor="#666666"
     borderopacity="1"
     objecttolerance="10"
     gridtolerance="10"
     guidetolerance="10"
     inkscape:pageopacity="0"
     inkscape:pageshadow="2"
     inkscape:window-width="1600"
     inkscape:window-height="849"
     id="namedview9"
     showgrid="false"
     inkscape:zoom="19.88"
     inkscape:cx="6.3441838"
     inkscape:cy="13.187294"
     inkscape:window-x="0"
     inkscape:window-y="0"
     inkscape:window-maximized="1"
     inkscape:current-layer="svg2817" />
  <metadata
     id="metadata57">
    <rdf:RDF>
      <cc:Work
         rdf:about="">
        <dc:format>image/svg+xml</dc:format>
        <dc:type
           rdf:resource="http://purl.org/dc/dcmitype/StillImage" />
        <dc:title />
      </cc:Work>
    </rdf:RDF>
  </metadata>
  <path
     inkscape:connector-curvature="0"
     id="path5884"
     style="fill:#ec6295;fill-opacity:1;enable-background:new"
     d="M 12,4 C 9.1525,4 6.7275,5.8442667 5.6835,8.4544001 3.03285,8.8714668 1,11.261867 1,14.181866 1,17.3952 3.46245,20 6.5,20 l 11.6875,0 C 20.8455,20 23,17.720534 23,14.909333 23,12.296 21.1425,10.154667 18.746,9.8634673 18.121,6.528 15.337,4 12,4 Z" />
  <path
     inkscape:connector-curvature="0"
     id="path4167"
     d="m 16,8.5 -6,2 0,1 0,3.269531 A 2,2 0 0 0 9,14.5 a 2,2 0 0 0 -2,2 2,2 0 0 0 2,2 2,2 0 0 0 2,-2 l 0,-5.333984 4,-1.332032 0,2.935547 C 14.696115,12.593441 14.351217,12.500481 14,12.5 c -1.104569,0 -2,0.895431 -2,2 0,1.104569 0.895431,2 2,2 1.104569,0 2,-0.895431 2,-2 l 0,-5 0,-1 z"
     style="opacity:0.2;fill:#000000;fill-opacity:1;stroke:none;stroke-width:1;stroke-miterlimit:4;stroke-dasharray:none;stroke-opacity:1" />
  <path
     style="opacity:1;fill:#ffffff;fill-opacity:1;stroke:none;stroke-width:1;stroke-miterlimit:4;stroke-dasharray:none;stroke-opacity:1"
     d="m 16,8 -6,2 0,1 0,3.269531 A 2,2 0 0 0 9,14 a 2,2 0 0 0 -2,2 2,2 0 0 0 2,2 2,2 0 0 0 2,-2 l 0,-5.333984 4,-1.3320316 0,2.9355466 C 14.696115,12.093441 14.351217,12.000481 14,12 c -1.104569,0 -2,0.895431 -2,2 0,1.104569 0.895431,2 2,2 1.104569,0 2,-0.895431 2,-2 l 0,-5 0,-1 z"
     id="path4156"
     inkscape:connector-curvature="0" />
  <path
     style="fill:#ffffff;fill-opacity:1;enable-background:new;opacity:0.2"
     d="M 12 4 C 9.1525 4 6.7275938 5.8449447 5.6835938 8.4550781 C 3.0329437 8.8721448 1 11.261642 1 14.181641 C 1 14.288971 1.0102008 14.394102 1.015625 14.5 C 1.0997174 11.664883 3.089379 9.363265 5.6835938 8.9550781 C 6.7275938 6.3449447 9.1525 4.5 12 4.5 C 15.337 4.5 18.121094 7.0278143 18.746094 10.363281 C 21.086847 10.647707 22.900665 12.702056 22.984375 15.232422 C 22.990755 15.125137 23 15.019141 23 14.910156 C 23 12.296823 21.142594 10.154481 18.746094 9.8632812 C 18.121094 6.527814 15.337 4 12 4 z "
     id="path4165" />
  <path
     style="fill:#000000;fill-opacity:1;enable-background:new;opacity:0.3"
     d="M 1.015625 14 C 1.0137956 14.061676 1 14.119471 1 14.181641 C 1 17.394975 3.46245 20 6.5 20 L 18.1875 20 C 20.8455 20 23 17.721357 23 14.910156 C 23 14.849366 22.986369 14.792684 22.984375 14.732422 C 22.826185 17.392483 20.742454 19.5 18.1875 19.5 L 6.5 19.5 C 3.5639086 19.5 1.1725941 17.064557 1.015625 14 z "
     id="path4171" />
</svg>
